apps/site/public/icons/companies/apollo.svg

<svg width="48" height="48" viewBox="0 0 48 48" fill="none" xmlns="http://www.w3.org/2000/svg">
<path d="M32.7984 29.5976L31.8701 26.9592L30.6474 23.4851L29.7631 20.971L28.6052 17.6806L27.2602 13.8589H20.7365L19.6952 16.8182L18.7668 19.4566L14.1558 32.5598H18.4583L19.8081 28.7351H26.333L25.1752 25.4447H20.9611L21.8456 22.9305L23.693 17.6806L23.9984 16.8117L24.3037 17.6806L29.5371 32.5569L29.5383 32.5598H33.8409L32.7984 29.5976Z" fill="white"/>
<path d="M41.0124 14.4266C42.66 17.3479 43.5232 20.6461 43.5179 24C43.5179 34.7794 34.7793 43.518 23.9999 43.518C13.2206 43.518 4.48193 34.7794 4.48193 24C4.48193 13.2206 13.2206 4.48205 23.9999 4.48205C27.5015 4.47647 30.9395 5.41752 33.9502 7.20557" stroke="white" stroke-width="1.65969" stroke-miterlimit="10" stroke-linecap="round"/>
<circle cx="33.798" cy="7.42042" r="2.26087" fill="white"/>
</svg>

<svg xmlns="http://www.w3.org/2000/svg" width="48" height="48" fill="none" viewBox="0 0 48 48"><path fill="#fff" d="m32.798 29.598-.928-2.639-1.223-3.474-.884-2.514-1.158-3.29-1.345-3.822h-6.524l-1.04 2.96-.93 2.638-4.61 13.103h4.302l1.35-3.825h6.525l-1.158-3.29h-4.214l.885-2.515 1.847-5.25.305-.868.306.869 5.233 14.876.001.003h4.303z"/><path stroke="#fff" stroke-linecap="round" stroke-miterlimit="10" stroke-width="1.66" d="M41.012 14.427A19.4 19.4 0 0 1 43.518 24c0 10.78-8.739 19.518-19.518 19.518S4.482 34.779 4.482 24 13.22 4.482 24 4.482c3.502-.006 6.94.936 9.95 2.724"/><circle cx="33.798" cy="7.42" r="2.261" fill="#fff"/></svg>
